src/svg/angle-circled-right.svg

<svg height="1000" width="857.143" xmlns="http://www.w3.org/2000/svg"><path d="M400.086 778.474l253.332 -253.332q10.602 -10.602 10.602 -25.11t-10.602 -25.11l-253.332 -253.332q-10.602 -10.602 -25.11 -10.602t-25.11 10.602l-56.916 56.916q-10.602 10.602 -10.602 25.11t10.602 25.11l171.306 171.306 -171.306 171.306q-10.602 10.602 -10.602 25.11t10.602 25.11l56.916 56.916q10.602 10.602 25.11 10.602t25.11 -10.602zm457.002 -278.442q0 116.622 -57.474 215.109t-155.961 155.961 -215.109 57.474 -215.109 -57.474 -155.961 -155.961 -57.474 -215.109 57.474 -215.109 155.961 -155.961 215.109 -57.474 215.109 57.474 155.961 155.961 57.474 215.109z"/></svg>

<svg height="1000" width="857.1" xmlns="http://www.w3.org/2000/svg"><path d="M400.1 778.5L653.5 525.1q10.6 -10.6 10.6 -25.1t-10.6 -25.1L400.1 221.5Q389.5 210.9 375 210.9t-25.1 10.6l-56.9 57q-10.6 10.6 -10.6 25.1t10.6 25.1L464.3 500 293 671.3q-10.6 10.6 -10.6 25.1t10.6 25.1l56.9 57q10.6 10.6 25.1 10.6t25.1 -10.6zM857.1 500q0 116.6 -57.4 215.1t-156 156 -215.1 57.5T213.4 871.1 57.5 715.1 0 500 57.5 284.9t155.9 -156T428.6 71.4t215.1 57.5 156 156T857.1 500z"/></svg>
